_site/assets/img/techstack/sonic.svg

<svg width="150" height="100" viewBox="0 0 150 100" fill="none" xmlns="http://www.w3.org/2000/svg">
<g clip-path="url(#clip0_704_2043)">
<mask id="mask0_704_2043" style="mask-type:luminance" maskUnits="userSpaceOnUse" x="5" y="20" width="140" height="60">
<path d="M145 20H5V79.8844H145V20Z" fill="white"/>
</mask>
<g mask="url(#mask0_704_2043)">
<path d="M76.6728 53.6558C75.9865 53.1829 74.9005 52.4015 73.8503 51.6458C72.8675 50.9385 71.9391 50.2705 71.3562 49.8675C71.3525 49.865 71.3489 49.8626 71.3452 49.8602L71.2643 49.8061C69.9857 48.9525 69.5998 48.6949 69.5998 47.145V42.5233C69.5998 41.7194 70.1086 40.8236 70.8387 40.8236H76.7379C77.2009 40.8236 77.5762 40.4474 77.5762 39.9834V38.7343C77.5762 38.2703 77.2009 37.894 76.7379 37.894H70.8387C68.2918 37.894 66.2197 39.9707 66.2197 42.5233V47.5614C66.2197 49.5279 67.0993 50.956 69.1607 52.3356C70.5702 53.3245 72.2672 54.5515 74.2091 55.9854C75.5212 56.9419 75.8995 57.271 75.8995 58.4703V64.3412C75.8995 65.1451 75.3907 66.0408 74.6607 66.0408H67.0996C66.6366 66.0408 66.2612 66.4171 66.2612 66.8811V68.1302C66.2612 68.5943 66.6366 68.9704 67.0996 68.9704H74.6607C77.2075 68.9704 79.2795 66.8937 79.2795 64.3412V58.4703C79.2795 57.4947 79.2795 55.4646 76.6728 53.6558Z" fill="#444649"/>
<path d="M93.6871 37.7686H89.4911C86.9881 37.7686 84.8726 39.9466 84.8726 42.5227V64.2163C84.8726 66.7934 86.9881 68.9705 89.4911 68.9705H93.6871C96.1909 68.9705 98.3062 66.7934 98.3062 64.2163V42.5227C98.3062 39.9466 96.1909 37.7686 93.6871 37.7686ZM94.9673 64.2163C94.9673 65.0421 94.3968 66.0404 93.6871 66.0404H89.4911C88.7927 66.0404 88.2521 65.0597 88.2521 64.2163V42.5227C88.2521 41.6794 88.7927 40.6987 89.4911 40.6987H93.6871C94.3968 40.6987 94.9673 41.6969 94.9673 42.5227V64.2163Z" fill="#444649"/>
<path d="M117.117 37.894H115.456C114.993 37.894 114.617 38.2703 114.617 38.7343V60.2928L109.165 38.5296C109.071 38.156 108.736 37.894 108.351 37.894H105.36C104.897 37.894 104.522 38.2703 104.522 38.7343V68.1302C104.522 68.5943 104.897 68.9704 105.36 68.9704H107.064C107.527 68.9704 107.902 68.5943 107.902 68.1302V47.3576L112.937 68.3268C113.028 68.7043 113.365 68.9704 113.752 68.9704H117.117C117.58 68.9704 117.955 68.5943 117.955 68.1302V38.7343C117.955 38.2703 117.58 37.894 117.117 37.894Z" fill="#444649"/>
<path d="M126.423 40.3506H124.719C124.256 40.3506 123.881 40.7268 123.881 41.1908V44.5635C123.881 45.0276 124.256 45.4038 124.719 45.4038H126.423C126.886 45.4038 127.261 45.0276 127.261 44.5635V41.1908C127.261 40.7268 126.886 40.3506 126.423 40.3506Z" fill="#444649"/>
<path d="M126.423 46.3047H124.719C124.256 46.3047 123.881 46.6809 123.881 47.1449V68.1301C123.881 68.5942 124.256 68.9704 124.719 68.9704H126.423C126.886 68.9704 127.261 68.5942 127.261 68.1301V47.1449C127.261 46.6809 126.886 46.3047 126.423 46.3047Z" fill="#444649"/>
<path d="M144.162 37.894H137.847C135.301 37.894 133.228 39.9707 133.228 42.5233V64.3412C133.228 66.8937 135.301 68.9704 137.847 68.9704H143.747C144.21 68.9704 144.585 68.5943 144.585 68.1302V66.8811C144.585 66.4171 144.21 66.0408 143.747 66.0408H137.847C137.117 66.0408 136.608 65.1451 136.608 64.3412V42.5233C136.608 41.7194 137.117 40.8236 137.847 40.8236H144.162C144.625 40.8236 145 40.4474 145 39.9834V38.7343C145 38.2703 144.625 37.894 144.162 37.894Z" fill="#444649"/>
<path d="M41.9359 45.712C41.9359 45.712 41.5651 45.7239 41.193 45.6331C41.1434 45.6202 41.0853 45.6018 41.0216 45.5791C41.0173 45.578 41.014 45.5758 41.0098 45.5748C40.9483 45.5575 40.8858 45.5423 40.8232 45.5272C40.6992 45.4991 40.5731 45.4775 40.4469 45.4624C40.3208 45.4472 40.1935 45.4397 40.0663 45.4375C39.9391 45.4353 39.8118 45.4408 39.6857 45.4527C39.5584 45.4634 39.4323 45.4819 39.3073 45.5067C39.2447 45.5197 39.1821 45.5337 39.1207 45.5499C38.9967 45.5812 38.8738 45.619 38.753 45.6634C38.5729 45.7314 38.3961 45.8136 38.2258 45.9098L17.5778 57.6694L17.5767 57.6705L17.5573 57.6812L15.8731 58.6409L15.8699 58.6433C15.4569 58.9092 15.1895 59.3779 15.1895 59.8933C15.1895 59.9635 15.1454 61.1869 15.1454 61.1869V71.0402L8.23932 67.0526C5.98368 65.7645 5.42192 63.4238 5.42192 63.4238C5.0909 62.2751 4.982 61.0669 5.0068 59.8706C5.0122 59.6156 5.02406 59.3616 5.04023 59.1077C5.04993 58.9716 5.05964 58.8365 5.0715 58.7003C5.08228 58.5771 5.09521 58.4539 5.10815 58.3307C5.11031 58.3178 5.11139 58.3059 5.11247 58.2929C5.20304 57.4749 5.35399 56.6612 5.58042 55.8712C5.62678 55.7069 5.67746 55.5459 5.73353 55.3903C5.74323 55.3622 5.75293 55.3341 5.76371 55.306L5.77342 55.279C5.84674 55.0845 5.9276 54.8964 6.02033 54.7149C6.02572 54.703 6.03219 54.6911 6.03866 54.6803C6.11845 54.5258 6.20686 54.3788 6.30498 54.2372C6.31146 54.2275 6.31792 54.2188 6.32439 54.2102C6.37399 54.1389 6.42682 54.0697 6.48181 54.0016C6.70177 53.7207 6.99397 53.4786 7.26353 53.2927C7.28401 53.2787 7.3045 53.2647 7.32391 53.2517C7.36488 53.2236 7.40584 53.1977 7.44466 53.1717C7.45221 53.1674 7.45976 53.162 7.46731 53.1577L7.48995 53.1599L7.96437 52.8886C7.96652 52.8875 7.96868 52.8875 7.96868 52.8875L29.4059 40.6567C30.5348 40.0105 31.9214 40.0105 33.0503 40.6589L40.1504 44.8626L40.627 44.989H40.6065L41.4896 45.4656L41.9359 45.712Z" fill="url(#paint0_linear_704_2043)"/>
<path d="M41.7914 25.5397C41.7914 25.5397 41.4205 25.5516 41.0485 25.4608C40.9989 25.4478 40.9406 25.4294 40.877 25.4068C40.8727 25.4057 40.8695 25.4035 40.8652 25.4024C40.8037 25.3851 40.7412 25.37 40.6786 25.3549C40.5547 25.3268 40.4285 25.3052 40.3023 25.29C40.1762 25.2749 40.049 25.2674 39.9217 25.2652C39.7944 25.263 39.6672 25.2684 39.5411 25.2803C39.4139 25.2911 39.2877 25.3095 39.1627 25.3343C39.1001 25.3473 39.0376 25.3614 38.9761 25.3776C38.8521 25.4089 38.7292 25.4467 38.6084 25.491C38.4284 25.5591 38.2515 25.6412 38.0812 25.7374L17.4332 37.497L17.4322 37.4981L17.4127 37.5089L15.7285 38.4685L15.7296 38.4847C15.3166 38.7505 15.045 39.2055 15.045 39.721C15.045 40.0344 15.1452 40.324 15.3166 40.5639C15.4051 40.6882 15.0374 41.0275 15.0374 41.0275V50.6204H13.2389L8.23487 47.7211C5.97923 46.4329 5.41748 44.0922 5.41748 44.0922C5.07353 42.8981 4.9711 41.6391 5.00667 40.3964C4.99158 39.882 5.00344 39.3676 5.03579 38.8575C5.10695 37.7672 5.27408 36.6736 5.57598 35.621C5.63097 35.4276 5.69135 35.2385 5.75928 35.0558L5.76898 35.0288C5.94365 34.5598 6.16576 34.1287 6.47845 33.7515H6.47737C6.69733 33.4705 6.98953 33.2285 7.25908 33.0426C7.29035 33.021 7.32162 32.9994 7.35289 32.9799L7.99227 32.6308H7.99335L9.29046 31.9252L29.2613 20.4844C30.3902 19.8382 31.7768 19.8382 32.9057 20.4866L40.0328 24.5552L40.4824 24.8167H40.463L41.345 25.2933L41.7914 25.5397Z" fill="url(#paint1_linear_704_2043)"/>
<path d="M31.2021 49.77V60.5991H31.1849C30.7536 60.5958 30.346 60.4965 29.9762 60.3182C29.9686 60.3138 29.96 60.3106 29.9525 60.3063L29.6322 60.1204C29.6279 60.1182 29.6247 60.115 29.6203 60.1128L13.2389 50.6204L8.23487 47.721C5.97923 46.4329 5.41748 44.0923 5.41748 44.0923C5.07353 42.8981 4.9711 41.6392 5.00667 40.3964C4.99158 39.8821 5.00344 39.3676 5.03579 38.8576C5.10695 37.7672 5.27408 36.6736 5.57598 35.6211C5.63097 35.4276 5.69135 35.2385 5.75928 35.0559L5.76898 35.0289C5.94365 34.5599 6.16576 34.1287 6.47737 33.7515C6.69733 33.4706 6.98953 33.2285 7.25908 33.0426C7.29035 33.021 7.32162 32.9994 7.35289 32.98C7.64509 32.7855 7.89523 32.6633 7.97286 32.6331C7.99551 32.6234 8.00306 32.6234 7.99227 32.6309C7.99012 32.6331 7.9858 32.6353 7.98149 32.6385C7.86289 32.7098 7.78526 32.8049 7.75507 32.8513C7.66151 32.9717 7.5763 33.0986 7.50262 33.2321C7.43654 33.3518 7.37981 33.4767 7.33467 33.6059C7.29332 33.7242 7.26177 33.846 7.24112 33.9696C7.22177 34.0855 7.212 34.2029 7.21181 34.3204C7.21163 34.4324 7.22012 34.5444 7.23662 34.6552C7.25249 34.7618 7.27574 34.8673 7.3054 34.9709C7.33398 35.0707 7.36848 35.1687 7.40805 35.2646C7.4458 35.3561 7.48815 35.4457 7.5344 35.5332C7.57777 35.6152 7.62457 35.6953 7.67436 35.7736C7.71975 35.8449 7.76764 35.9147 7.81775 35.9828C7.86164 36.0425 7.90724 36.1009 7.95447 36.1579C7.99332 36.2049 8.03327 36.2508 8.07438 36.2958C8.1047 36.329 8.13564 36.3616 8.16733 36.3935C8.19174 36.418 8.21704 36.4418 8.24482 36.4624C8.26977 36.481 8.29742 36.494 8.32363 36.51C8.33536 36.5172 8.34746 36.5239 8.35935 36.5307L8.44726 36.5817L8.55584 36.6446L8.68353 36.7186L8.82879 36.8029L8.99007 36.8964L9.16582 36.9982L9.35449 37.1076L9.55453 37.2236L9.76439 37.3452L9.98254 37.4717L10.2074 37.6021L10.4375 37.7355L10.6711 37.8709L10.9069 38.0076L11.1432 38.1445L11.3784 38.281L11.6111 38.4159L11.8397 38.5484L12.0627 38.6776L12.2784 38.8027L12.4854 38.9226L12.682 39.0367L12.8668 39.1438L13.0382 39.2432L13.1946 39.3338L13.3345 39.415L13.4565 39.4856L13.5587 39.5449L13.6399 39.592L13.6983 39.6259L13.7325 39.6456L13.7413 39.6508L15.3166 40.5639L31.2021 49.77Z" fill="url(#paint2_linear_704_2043)"/>
<path d="M57.2082 35.604C57.1521 35.4106 57.0918 35.2215 57.0227 35.0388L57.013 35.0118C56.9926 34.9567 56.9709 34.9026 56.9484 34.8487C56.7812 34.4423 56.5731 34.0673 56.2938 33.7345C56.0707 33.4535 55.7741 33.2115 55.5003 33.0256C55.1639 32.7954 54.8631 32.6495 54.7757 32.616C54.7466 32.6041 54.7423 32.6063 54.7671 32.6214C54.8879 32.6927 54.9665 32.7878 54.9968 32.8343C55.149 33.0686 55.3011 33.2808 55.3965 33.5476C55.4859 33.797 55.5319 34.0613 55.5313 34.3262C55.5303 34.7059 55.4349 35.0846 55.272 35.4263C55.1717 35.6366 55.0527 35.8444 54.8862 36.0096C54.7051 36.1892 54.4539 36.2945 54.2354 36.4211L53.3975 36.9068L52.267 37.5621L50.8936 38.3581L49.3265 39.2665L47.6153 40.2583L45.8095 41.305L43.9587 42.3778L42.1122 43.4481L40.3195 44.4871L38.6301 45.4664L37.0936 46.357L35.7593 47.1304L34.6769 47.7578L33.8956 48.2106L33.4651 48.4601L33.3956 48.5004L31.2015 49.7529V53.9901L31.2014 54.2315V60.5994H31.209C31.6305 60.5994 32.0295 60.5075 32.3886 60.3411C32.3993 60.3368 32.4102 60.3313 32.4198 60.326L32.8209 60.0937L48.7366 50.8714V59.3955L31.2014 69.5633L31.1831 69.5742V79.8846H31.2068C31.6284 79.8846 32.0273 79.7927 32.3864 79.6263L32.8597 79.3508L54.4231 66.8012C56.6788 65.513 57.2405 63.1724 57.2405 63.1724C57.4961 62.2862 57.619 61.3634 57.6502 60.4394V38.7653C57.6502 38.2364 57.6565 37.731 57.57 37.2073C57.4805 36.6665 57.3617 36.1303 57.2082 35.604Z" fill="url(#paint3_linear_704_2043)"/>
<path d="M31.2066 79.2363V79.8847H31.1828C30.7516 79.8814 30.344 79.782 29.9785 79.6059C29.9785 79.6059 29.9763 79.6047 29.9741 79.6037L8.23932 67.0531C5.98368 65.7649 5.42192 63.4242 5.42192 63.4242C5.0909 62.2755 4.982 61.0674 5.0068 59.8711C5.0122 59.6161 5.02406 59.3621 5.04023 59.1082C5.04993 58.972 5.05964 58.8369 5.0715 58.7007C5.08228 58.5776 5.09521 58.4544 5.10815 58.3311C5.11031 58.3182 5.11139 58.3063 5.11247 58.2933C5.20304 57.4753 5.35399 56.6616 5.58042 55.8716C5.62678 55.7073 5.67746 55.5464 5.73353 55.3907C5.74323 55.3627 5.75293 55.3345 5.76371 55.3064L5.77342 55.2794C5.84674 55.0849 5.92761 54.8968 6.02033 54.7153C6.02572 54.7034 6.03219 54.6915 6.03866 54.6808C6.11845 54.5262 6.20686 54.3793 6.30498 54.2376C6.31146 54.2279 6.31792 54.2193 6.32439 54.2107C6.37399 54.1393 6.42682 54.0702 6.48181 54.0021C6.70177 53.7211 6.99397 53.479 7.26353 53.2932C7.28401 53.2792 7.3045 53.2651 7.32391 53.2521C7.36488 53.2241 7.40584 53.1981 7.44466 53.1722C7.45221 53.1678 7.45976 53.1624 7.46731 53.1581C7.60424 53.0739 7.725 53.0069 7.81773 52.9582C7.88243 52.9247 7.93309 52.902 7.96437 52.889C7.96652 52.888 7.96868 52.888 7.96868 52.888C7.97191 52.8858 7.97515 52.8847 7.97731 52.8836C8.00641 52.8717 8.01073 52.8739 7.98593 52.889C7.86733 52.9603 7.78969 53.0554 7.7552 53.103L7.7595 53.1019C7.45114 53.4974 7.29479 53.8876 7.24088 54.255C7.24088 54.2571 7.24195 54.2604 7.24195 54.2626C7.23872 54.3046 7.23764 54.3479 7.23764 54.3911C7.23764 54.8201 7.36918 55.2502 7.62903 55.5918C7.9428 56.0045 31.2012 69.5602 31.2012 69.5602V70.2086L31.2033 73.5456L31.2066 79.2363Z" fill="url(#paint4_linear_704_2043)"/>
</g>
</g>
<defs>
<linearGradient id="paint0_linear_704_2043" x1="5.00342" y1="55.6063" x2="41.9359" y2="55.6063" gradientUnits="userSpaceOnUse">
<stop stop-color="#00314E"/>
<stop offset="1" stop-color="#007F94"/>
</linearGradient>
<linearGradient id="paint1_linear_704_2043" x1="5" y1="35.3102" x2="41.7914" y2="35.3102" gradientUnits="userSpaceOnUse">
<stop offset="0.06154" stop-color="#29617A"/>
<stop offset="0.55898" stop-color="#7BD9EF"/>
</linearGradient>
<linearGradient id="paint2_linear_704_2043" x1="5" y1="46.6123" x2="31.2021" y2="46.6123" gradientUnits="userSpaceOnUse">
<stop stop-color="#34E4FF"/>
<stop offset="1" stop-color="#29617A"/>
</linearGradient>
<linearGradient id="paint3_linear_704_2043" x1="31.1831" y1="56.2465" x2="57.6504" y2="56.2465" gradientUnits="userSpaceOnUse">
<stop stop-color="#349DFF"/>
<stop offset="1" stop-color="#29617A"/>
</linearGradient>
<linearGradient id="paint4_linear_704_2043" x1="5.00342" y1="66.3803" x2="31.2066" y2="66.3803" gradientUnits="userSpaceOnUse">
<stop stop-color="#34E4FF"/>
<stop offset="1" stop-color="#29617A"/>
</linearGradient>
<clipPath id="clip0_704_2043">
<rect width="140" height="59.8844" fill="white" transform="translate(5 20)"/>
</clipPath>
</defs>
</svg>

<svg width="150" height="100" fill="none" xmlns="http://www.w3.org/2000/svg"><g clip-path="url(#clip0_704_2043)"><mask id="a" style="mask-type:luminance" maskUnits="userSpaceOnUse" x="5" y="20" width="140" height="60"><path d="M145 20H5v59.884h140V20z" fill="#fff"/></mask><g mask="url(#a)"><path d="M76.673 53.656a205.655 205.655 0 01-2.823-2.01 197.347 197.347 0 00-2.505-1.786l-.08-.054c-1.28-.853-1.665-1.111-1.665-2.661v-4.622c0-.804.509-1.7 1.239-1.7h5.899a.84.84 0 00.838-.84v-1.249a.84.84 0 00-.838-.84h-5.9a4.63 4.63 0 00-4.618 4.63v5.037c0 1.967.88 3.395 2.94 4.775 1.41.989 3.107 2.215 5.05 3.65 1.311.956 1.69 1.285 1.69 2.484v5.871c0 .804-.51 1.7-1.24 1.7H67.1a.84.84 0 00-.839.84v1.25c0 .463.376.84.839.84h7.56a4.63 4.63 0 004.62-4.63v-5.87c0-.976 0-3.006-2.607-4.815zm17.014-15.887h-4.196c-2.503 0-4.618 2.178-4.618 4.754v21.693c0 2.577 2.115 4.755 4.618 4.755h4.196c2.504 0 4.62-2.178 4.62-4.755V42.523c0-2.576-2.116-4.754-4.62-4.754zm1.28 26.447c0 .826-.57 1.824-1.28 1.824h-4.196c-.698 0-1.239-.98-1.239-1.824V42.523c0-.844.54-1.824 1.24-1.824h4.195c.71 0 1.28.998 1.28 1.824v21.693zm22.15-26.322h-1.661a.84.84 0 00-.839.84v21.559l-5.452-21.763a.84.84 0 00-.814-.636h-2.991a.84.84 0 00-.838.84V68.13c0 .464.375.84.838.84h1.704a.839.839 0 00.838-.84V47.358l5.035 20.969a.84.84 0 00.815.643h3.365a.839.839 0 00.838-.84V38.734a.84.84 0 00-.838-.84zm9.306 2.456h-1.704a.839.839 0 00-.838.84v3.373c0 .465.375.84.838.84h1.704a.839.839 0 00.838-.84v-3.372a.839.839 0 00-.838-.84zm0 5.955h-1.704a.839.839 0 00-.838.84V68.13c0 .464.375.84.838.84h1.704a.839.839 0 00.838-.84V47.145a.839.839 0 00-.838-.84zm17.739-8.411h-6.315a4.63 4.63 0 00-4.619 4.63V64.34a4.63 4.63 0 004.619 4.63h5.9a.839.839 0 00.838-.84v-1.25a.84.84 0 00-.838-.84h-5.9c-.73 0-1.239-.896-1.239-1.7V42.523c0-.804.509-1.7 1.239-1.7h6.315a.839.839 0 00.838-.84v-1.249a.84.84 0 00-.838-.84z" fill="#444649"/><path d="M41.936 45.712s-.37.012-.743-.079a2.098 2.098 0 01-.171-.054l-.012-.004a3.689 3.689 0 00-1.324-.122 3.412 3.412 0 00-.565.097 3.67 3.67 0 00-.368.113c-.18.068-.357.15-.527.247L17.578 57.67h-.001l-.02.011-1.684.96-.003.002a1.49 1.49 0 00-.68 1.25c0 .07-.045 1.294-.045 1.294v9.853L8.24 67.053c-2.255-1.288-2.817-3.63-2.817-3.63-.331-1.148-.44-2.356-.415-3.552a17.987 17.987 0 01.105-1.578 14.74 14.74 0 01.468-2.422 7.141 7.141 0 01.184-.565l.01-.027a5.5 5.5 0 01.265-.599 3.99 3.99 0 01.443-.678 3.598 3.598 0 01.842-.75c.04-.028.082-.054.12-.08l.023-.014.023.002.474-.271.005-.002 21.437-12.23a3.662 3.662 0 013.644.002l7.1 4.204.477.126h-.02l.883.477.446.246z" fill="url(#paint0_linear_704_2043)"/><path d="M41.791 25.54s-.37.012-.742-.08a2.167 2.167 0 01-.172-.053l-.012-.005a3.712 3.712 0 00-.944-.137 3.424 3.424 0 00-.38.015 3.44 3.44 0 00-.565.098 3.466 3.466 0 00-.895.359l-20.648 11.76v.001l-.02.01-1.684.96v.017a1.47 1.47 0 00-.684 1.236c0 .313.1.603.272.843.088.124-.28.464-.28.464v9.592H13.24l-5.004-2.899c-2.256-1.288-2.818-3.629-2.818-3.629-.343-1.194-.446-2.453-.41-3.696a16.63 16.63 0 01.029-1.538 15.39 15.39 0 01.54-3.237c.055-.193.115-.383.183-.565l.01-.027c.175-.47.397-.9.71-1.278h-.002a3.608 3.608 0 01.876-.771l.64-.35 1.297-.705 19.971-11.44a3.662 3.662 0 013.645.002l7.127 4.068.45.262h-.02l.882.476.446.247z" fill="url(#paint1_linear_704_2043)"/><path d="M31.202 49.77V60.6h-.017a2.818 2.818 0 01-1.209-.282c-.007-.004-.016-.007-.023-.012l-.32-.186-.013-.007-16.38-9.493-5.004-2.899c-2.256-1.288-2.818-3.629-2.818-3.629-.343-1.194-.446-2.453-.41-3.696a16.627 16.627 0 01.029-1.538 15.39 15.39 0 01.54-3.237c.055-.193.115-.383.183-.565l.01-.027c.175-.47.397-.9.708-1.278a3.608 3.608 0 01.876-.771c.292-.194.542-.317.62-.347.023-.01.03-.01.02-.002l-.012.008a.738.738 0 00-.226.212 2.92 2.92 0 00-.252.381c-.066.12-.123.245-.168.374a2.204 2.204 0 00-.123.714 2.25 2.25 0 00.093.65 2.77 2.77 0 00.23.563 3.482 3.482 0 00.283.45 3.832 3.832 0 00.35.41.64.64 0 00.077.07c.025.018.052.031.079.047l.035.02.088.052.109.063.128.074.145.084.161.093.176.102.188.11.2.116.21.121.219.127.224.13.23.134.234.135.236.137.236.136.235.137.233.135.229.132.223.13.215.125.207.12.197.114.185.107.171.1.157.09.14.081.121.07.103.06.08.047.06.034.034.02.008.005 1.576.913 15.885 9.206z" fill="url(#paint2_linear_704_2043)"/><path d="M57.208 35.604a7.521 7.521 0 00-.185-.565l-.01-.027a4.285 4.285 0 00-.065-.163 4.181 4.181 0 00-.654-1.114 3.623 3.623 0 00-.794-.71 4.374 4.374 0 00-.724-.409c-.03-.012-.034-.01-.009.005.12.072.2.167.23.213.152.235.304.447.4.714.089.249.135.513.134.778 0 .38-.096.759-.259 1.1-.1.21-.22.418-.386.584-.18.18-.432.285-.65.411l-.838.486-1.131.655-1.373.796-1.567.909-1.712.991-1.806 1.047-1.85 1.073-1.847 1.07-1.793 1.04-1.689.978-1.536.891-1.335.773-1.082.628-.781.453-.43.25-.07.04-2.195 1.252v10.846h.008a2.796 2.796 0 001.21-.273l.402-.232 15.916-9.223v8.524L31.2 69.564l-.018.011v10.31h.024c.421 0 .82-.091 1.18-.258l.473-.275L54.423 66.8c2.256-1.288 2.817-3.629 2.817-3.629.256-.886.379-1.809.41-2.733V38.765c0-.529.007-1.034-.08-1.558-.09-.54-.208-1.077-.362-1.603z" fill="url(#paint3_linear_704_2043)"/><path d="M31.207 79.236v.649h-.024a2.815 2.815 0 01-1.204-.28l-.005-.001L8.24 67.054c-2.255-1.29-2.817-3.63-2.817-3.63-.331-1.148-.44-2.357-.415-3.553a17.987 17.987 0 01.065-1.17c.01-.123.023-.247.036-.37a14.646 14.646 0 01.472-2.46 7.16 7.16 0 01.154-.48l.03-.085.01-.027a5.503 5.503 0 01.265-.598 3.99 3.99 0 01.443-.679 3.616 3.616 0 01.842-.749c.04-.029.082-.055.12-.08l.023-.015c.137-.084.258-.151.35-.2.065-.033.116-.056.147-.069l.005-.001.008-.004c.03-.012.034-.01.009.005a.808.808 0 00-.23.214l.003-.001c-.308.395-.464.786-.518 1.153l.001.008a1.99 1.99 0 00.387 1.33c.314.412 23.572 13.967 23.572 13.967v.649l.002 3.337.004 5.69z" fill="url(#paint4_linear_704_2043)"/></g></g><defs><linearGradient id="paint0_linear_704_2043" x1="5.003" y1="55.606" x2="41.936" y2="55.606" gradientUnits="userSpaceOnUse"><stop stop-color="#00314E"/><stop offset="1" stop-color="#007F94"/></linearGradient><linearGradient id="paint1_linear_704_2043" x1="5" y1="35.31" x2="41.791" y2="35.31" gradientUnits="userSpaceOnUse"><stop offset=".062" stop-color="#29617A"/><stop offset=".559" stop-color="#7BD9EF"/></linearGradient><linearGradient id="paint2_linear_704_2043" x1="5" y1="46.612" x2="31.202" y2="46.612" gradientUnits="userSpaceOnUse"><stop stop-color="#34E4FF"/><stop offset="1" stop-color="#29617A"/></linearGradient><linearGradient id="paint3_linear_704_2043" x1="31.183" y1="56.246" x2="57.65" y2="56.246" gradientUnits="userSpaceOnUse"><stop stop-color="#349DFF"/><stop offset="1" stop-color="#29617A"/></linearGradient><linearGradient id="paint4_linear_704_2043" x1="5.003" y1="66.38" x2="31.207" y2="66.38" gradientUnits="userSpaceOnUse"><stop stop-color="#34E4FF"/><stop offset="1" stop-color="#29617A"/></linearGradient><clipPath id="clip0_704_2043"><path fill="#fff" transform="translate(5 20)" d="M0 0h140v59.884H0z"/></clipPath></defs></svg>
